X:92
%%etbk:tnset id:32,pos:2,rep:3x,ant:
%%etbk:wsite http://www.thesession.org/tunes/display/21
%%etbk:pldat 2016-08-03T16:12,2015-12-31T14:11,2015-12-29T15:57,2015-11-29T14:55,2015-10-13T16:40,2015-06-11T19:29,2015-05-19T17:23,2015-03-06T17:35,2015-01-22T19:43,2015-01-20T18:04,2014-12-26T16:15,2014-12-20T15:11,2014-05-14T17:33,2014-05-09T19:15,2014-04-28T18:50,2014-04-11T19:08,2014-04-09T17:43,2014-03-20T18:51,2014-02-05T16:17,2013-05-15T15:40
T: Castle Kelly
Z: Piano Box Version by Martin Fleischmann
H: Created 2013-02-19 /  Last Modified 2013-02-19
M: 4/4
L: 1/8
R: reel
K: Amin
|: "am"!1!A2!3!cA !1!ABc!1!A | "em"!2!GGEG !2!G2E!2!G | "am"!1!A2c!1!A !2!G!1!A!3!cd | "em"!5!ecdB "am"!3!c!1!AA2 | 
"am"!1!ABcA ABcA | "em"!2!GGEG G2E!2!G | "am"!1!A2c!1!A !2!G!1!A!3!cd | "em"!5!ecdB "am"!3!c!1!AA2:|
|: "am"!5!a!4!g!3!e!1!c !3!d!5!fed | !2!c!1!A!2!GE "G"!2!!1!G4 | "am"!5!a!4!g!3!e!1!c "em"!2!d2cd | "am"!3!e!5!aag !5!a4 |
"am"!5!a!4!g!3!e!1!c !3!d!5!fed | !2!c!1!A!2!GE "G"!2!G2E!2!G | "am"!1!A2 c!1!A !2!G!1!A!3!cd | "em"!5!ecdB "am"!3!c!1!AA2:|


